packages/core/src/svgs/tokens/branded/NAV.svg

<svg width="24" height="24" viewBox="0 0 24 24" fill="none" xmlns="http://www.w3.org/2000/svg">
<path fill-rule="evenodd" clip-rule="evenodd" d="M7.06668 3.19997C6.89877 2.97609 6.66469 2.81072 6.39757 2.72728C6.13045 2.64384 5.84385 2.64656 5.57838 2.73506C5.31289 2.82354 5.08198 2.99332 4.91835 3.22034C4.75472 3.44736 4.66666 3.72011 4.66666 3.99996V10.6667H3.33333C2.97971 10.6667 2.64058 10.8072 2.39052 11.0572C2.14048 11.3073 2 11.6464 2 12C2 12.3536 2.14048 12.6927 2.39052 12.9428C2.64058 13.1928 2.97971 13.3333 3.33333 13.3333H4.66666V20.0001C4.66666 20.3536 4.80715 20.6928 5.0572 20.9427C5.30724 21.1929 5.64639 21.3333 6.00001 21.3333C6.35364 21.3333 6.69276 21.1929 6.94282 20.9427C7.19286 20.6928 7.33334 20.3536 7.33334 20.0001V13.3333H11.3334L16.9334 20.7999C17.1012 21.0239 17.3353 21.1893 17.6024 21.2727C17.8695 21.3562 18.1562 21.3534 18.4217 21.2649C18.6871 21.1764 18.9181 21.0067 19.0818 20.7796C19.2453 20.5526 19.3333 20.2799 19.3333 20.0001V13.3333H20.6667C21.0203 13.3333 21.3594 13.1928 21.6096 12.9428C21.8595 12.6927 22 12.3536 22 12C22 11.6464 21.8595 11.3073 21.6096 11.0572C21.3594 10.8072 21.0203 10.6667 20.6667 10.6667H19.3333V3.99996C19.3333 3.64633 19.1928 3.30721 18.9429 3.05715C18.6927 2.80711 18.3536 2.66663 18 2.66663C17.6465 2.66663 17.3073 2.80711 17.0572 3.05715C16.8072 3.30721 16.6668 3.64633 16.6668 3.99996V10.6667H12.6666L7.06668 3.19997ZM14.6666 13.3333L16.6668 15.9999V13.3333H14.6666ZM9.33339 10.6667L7.33334 7.99997V10.6667H9.33339Z" fill="url(#paint0_linear_364_5887)"/>
<defs>
<linearGradient id="paint0_linear_364_5887" x1="22" y1="2.66663" x2="3.1999" y2="22.6315" gradientUnits="userSpaceOnUse">
<stop stop-color="#0B88F6"/>
<stop offset="0.456" stop-color="#7152D7"/>
<stop offset="1" stop-color="#DD1EBA"/>
</linearGradient>
</defs>
</svg>

<svg xmlns="http://www.w3.org/2000/svg" width="24" height="24" fill="none" viewBox="0 0 24 24">
    <path fill="url(#NAV__a)" fill-rule="evenodd" d="M7.067 3.2a1.333 1.333 0 0 0-2.4.8v6.667H3.333a1.334 1.334 0 0 0 0 2.666h1.334V20a1.333 1.333 0 0 0 2.666 0v-6.667h4l5.6 7.467a1.332 1.332 0 0 0 2.4-.8v-6.667h1.334a1.334 1.334 0 0 0 0-2.666h-1.334V4a1.334 1.334 0 0 0-2.666 0v6.667h-4zm7.6 10.133 2 2.667v-2.667zm-5.334-2.666L7.333 8v2.667z" clip-rule="evenodd"/>
    <defs>
        <linearGradient id="NAV__a" x1="22" x2="3.2" y1="2.667" y2="22.631" gradientUnits="userSpaceOnUse">
            <stop stop-color="#0B88F6"/>
            <stop offset=".456" stop-color="#7152D7"/>
            <stop offset="1" stop-color="#DD1EBA"/>
        </linearGradient>
    </defs>
</svg>
